X:165
T: Padraig O'Keeffe's
S: De Danann
Z: B.Black
R: jig
M: 6/8
L: 1/8
K: G
f | aff gee | fdd B2 A | aff gee | fdd d2 f |
aff gee | fdd B2 A | GAB dBA | FEE E2 :|
F | GAB d2 B | dBe dBA | GAB dBA | Bee e2 F |
GAB d2 B | dBe dBA | GAB dBA | FEE E2 :|
